icons/stack-remove-16.svg

<svg width="16" height="16" viewBox="0 0 16 16" xmlns="http://www.w3.org/2000/svg">
<path d="M14.7193 10.2198C15.0121 9.92692 15.4869 9.92701 15.7798 10.2198C16.0727 10.5127 16.0727 10.9874 15.7798 11.2803L14.0601 13L15.7798 14.7198C16.0727 15.0127 16.0727 15.4874 15.7798 15.7803C15.4869 16.0729 15.0121 16.0731 14.7193 15.7803L12.9996 14.0606L11.2798 15.7803C10.9869 16.0729 10.5121 16.0731 10.2193 15.7803C9.92663 15.4875 9.92676 15.0127 10.2193 14.7198L11.939 13L10.2193 11.2803C9.92663 10.9875 9.92676 10.5127 10.2193 10.2198C10.5121 9.92692 10.9869 9.92701 11.2798 10.2198L12.9996 11.9395L14.7193 10.2198Z" />
<path d="M1.60113 11.2891C1.80888 10.9309 2.26729 10.8091 2.62555 11.0167L7.87457 14.0606C8.23239 14.2684 8.3544 14.7269 8.14703 15.085C7.93913 15.4431 7.47985 15.5652 7.12164 15.3575L1.87359 12.3135C1.51562 12.1057 1.39367 11.6473 1.60113 11.2891Z" />
<path d="M1.60113 7.78911C1.80888 7.43092 2.26729 7.30912 2.62555 7.51665L7.87457 10.5606C8.23239 10.7684 8.3544 11.2269 8.14703 11.585C7.93913 11.9431 7.47985 12.0652 7.12164 11.8575L1.87359 8.81353C1.51562 8.60571 1.39367 8.14728 1.60113 7.78911Z" />
<path fill-rule="evenodd" clip-rule="evenodd" d="M7.12164 0.392627C7.66455 0.0777416 8.33456 0.0778247 8.8775 0.392627L13.8804 3.29399C14.7105 3.77567 14.7104 4.97432 13.8804 5.4561L8.8775 8.35845C8.33472 8.67294 7.66435 8.67311 7.12164 8.35845L2.11871 5.4561C1.28909 4.97432 1.28912 3.7758 2.11871 3.29399L7.12164 0.392627ZM8.12457 1.69048C8.04711 1.64572 7.952 1.64563 7.87457 1.69048L3.24371 4.37505L7.87457 7.0606C7.9518 7.10522 8.04727 7.10505 8.12457 7.0606L12.7545 4.37505L8.12457 1.69048Z" />
</svg>

<svg xmlns="http://www.w3.org/2000/svg" width="16" height="16" viewBox="0 0 16 16"><path d="M14.719 10.22a.75.75 0 0 1 1.061 1.06L14.06 13l1.72 1.72a.749.749 0 1 1-1.061 1.06L13 14.061l-1.72 1.719a.75.75 0 0 1-1.061-1.06l1.72-1.72-1.72-1.72a.75.75 0 0 1 1.061-1.06L13 11.94zM1.601 11.289a.75.75 0 0 1 1.025-.272l5.249 3.044a.75.75 0 0 1-.753 1.296l-5.248-3.044a.75.75 0 0 1-.273-1.024m0-3.5a.75.75 0 0 1 1.025-.272l5.249 3.044a.75.75 0 0 1-.753 1.296L1.874 8.814a.75.75 0 0 1-.273-1.025M7.122.393a1.75 1.75 0 0 1 1.755 0l5.003 2.901c.83.482.83 1.68 0 2.162L8.877 8.358a1.75 1.75 0 0 1-1.755 0L2.119 5.456a1.25 1.25 0 0 1 0-2.162ZM8.125 1.69a.25.25 0 0 0-.25 0L3.244 4.375l4.631 2.686a.25.25 0 0 0 .25 0l4.63-2.686Z"/></svg>
